X:1
T:Gregory, LM
T:German Tune
T:Gregory, LM
T:Public Domain
C:German Tune
Z:Public Domain
%%score ( 1 2 ) ( 3 4 )
L:1/8
M:4/4
K:Eb
V:1 treble 
V:2 treble 
V:3 bass 
V:4 bass 
V:1
 [EB]2 | [EG]2 [EB]2 [Ac]2 [Ge]2 | F2 z A [EG]2 [FB]2 | E2 [DG]2 (CD) [EG]2 | %4
 [DF]2 [CE]2 [DF]2 [DB]2 | [EG]2 [EB]2 [Ec]2 [Ee]2 | F2 z A [EG]2 [FB]2 | E2 [DG]2 (CD) [EG]2 | %8
 [EF]2 [DF]2 E2 |] %9
V:2
 x2 | x8 | B3 D2 x3 | E2 A2 x4 | x8 | x8 | B3 D2 x3 | E2 A2 x4 | x4 E2 |] %9
V:3
 [E,G,]2 | [E,B,]2 G,2 [F,A,]2 [E,B,]2 | [D,B,]2 [B,,B,]2 [E,B,]2 [D,B,]2 | %3
 [C,G,]2 [B,,B,]2 [A,,C]2 [E,B,]2 | [B,,B,]2 [C,G,]2 [B,,B,]2 [B,,F,]2 | %5
 [C,E,]2 [G,,B,]2 [A,,A,]2 [C,G,]2 | [D,F,]2 [B,,B,]2 [E,B,]2 [D,B,]2 | %7
 [C,G,]2 [B,,B,]2 [A,,C]2 [E,B,]2 | [B,,B,]2 (B,A,) [E,G,]2 |] %9
V:4
 x2 | x2 G,2 x4 | x8 | x8 | x8 | x8 | x8 | x8 | x2 B,,2 x2 |] %9

